X: 20911
T: MISS S. MURRAY'S REEL
O: Scottish
%R: reel
B: W. Hamilton "Universal Tune-Book" Vol. 2 Glasgow 1846 p.91 #1
S: http://s3-eu-west-1.amazonaws.com/itma.dl.printmaterial/book_pdfs/hamiltonvol2web.pdf
Z: 2016 John Chambers <jc:trillian.mit.edu>
M: C
L: 1/8
K: C
% - - - - - - - - - - - - - - - - - - - - - - - - -
g |\
ecc2 GcEc | FEDC B,ddf |\
ecc2 GcEc | CcAG Acc :|\
g |\
ecge agfe | fddc Bddf |
gcge agfe | dcBG Acc>g |\
ecge agfe | fddc Bddf |\
ecdB cAGF | E/F/G cG Ac c |]
% - - - - - - - - - - - - - - - - - - - - - - - - -

%%sep 1 1 500
%%sep 1 1 500

